calendar-blank-multiple.svg

<svg  viewBox="0 0 24 24" fill="currentColor"><path  d="M21 17V8H7V17H21M21 3C22.1 3 23 3.9 23 5V17C23 18.1 22.1 19 21 19H7C5.89 19 5 18.1 5 17V5C5 3.9 5.9 3 7 3H8V1H10V3H18V1H20V3H21M3 21H17V23H3C1.89 23 1 22.1 1 21V9H3V21Z"/></svg>

<svg fill="currentColor" viewBox="0 0 24 24"><path d="M21 17V8H7v9zm0-14c1.1 0 2 .9 2 2v12c0 1.1-.9 2-2 2H7a2 2 0 0 1-2-2V5c0-1.1.9-2 2-2h1V1h2v2h8V1h2v2zM3 21h14v2H3a2 2 0 0 1-2-2V9h2z"/></svg>
